X: 2
T: No_100_Stomp_Dance_Song_(b).krn
N: Derived from No_100_Stomp_Dance_Song_(b).krn
%%abc-version 2.0
%%abcx-abcm2ps-target-version 5.9.1 (29 Sep 2008)
%%abc-creator hum2abc beta
%%abcx-conversion-date 2019/03/15 08:38:45
%%humdrum-veritas 3034242569
%%humdrum-veritas-data 2270655883
%%linebreak <none>
%%barnumbers 0
L: 1/8
M: 3/4
K: G clef=bass
[K:clef=bass][M:3/4]z4G,G, | 
B,4z2 | 
G,G, G,3/G,/ G,3/G,/ | 
B,4z2 | 
G,G, G,3/G,/ G,3/G,/ | 
B,4z2 | 
G,G, G,3/G,/ B,3/^A,/ | 
B,4z2 ||  
[M:2/4]B,2B,3/B,/ ||  
[M:3/4]B,4z2 | 
G,G, G,3/G,/ G,3/G,/ | 
B,4z2 | 
G,G, G,3/G,/ (CB,) | 
B,4z2 | 
B,B, B,3/B,/ B,3/^A,/ | 
B,4z2 | 
G,G, G,3/G,/ G,3/G,/ | 
B,4z2 | 
G,G, G,3/G,/ B,3/^A,/ | 
B,4z2



